X:117
T: Ahol én elmegyek...
M: 2/4
L: 1/4
K: F
g/a/g/f/ | g<d | 
f/g/f/c/ | d<B | 
c/d/c/B/ | c<F | 
B/c/B/F/ | G<G | 

